images/3233795.svg

<?xml version="1.0" encoding="UTF-8"?>
<svg xmlns="http://www.w3.org/2000/svg" xmlns:xlink="http://www.w3.org/1999/xlink" width="300pt" height="300pt" viewBox="0 0 300 300" version="1.1">
<defs>
<g>
<symbol overflow="visible" id="glyph0-0">
<path style="stroke:none;" d="M 0.453125 1.59375 L 0.453125 -6.34375 L 4.953125 -6.34375 L 4.953125 1.59375 Z M 0.953125 1.09375 L 4.453125 1.09375 L 4.453125 -5.84375 L 0.953125 -5.84375 Z M 0.953125 1.09375 "/>
</symbol>
<symbol overflow="visible" id="glyph0-1">
<path style="stroke:none;" d="M 0.890625 -6.5625 L 2.078125 -6.5625 L 4.984375 -1.078125 L 4.984375 -6.5625 L 5.84375 -6.5625 L 5.84375 0 L 4.65625 0 L 1.75 -5.484375 L 1.75 0 L 0.890625 0 Z M 0.890625 -6.5625 "/>
</symbol>
<symbol overflow="visible" id="glyph0-2">
<path style="stroke:none;" d="M 3.546875 -5.953125 C 2.898438 -5.953125 2.382812 -5.710938 2 -5.234375 C 1.625 -4.753906 1.4375 -4.101562 1.4375 -3.28125 C 1.4375 -2.445312 1.625 -1.789062 2 -1.3125 C 2.382812 -0.832031 2.898438 -0.59375 3.546875 -0.59375 C 4.191406 -0.59375 4.703125 -0.832031 5.078125 -1.3125 C 5.453125 -1.789062 5.640625 -2.445312 5.640625 -3.28125 C 5.640625 -4.101562 5.453125 -4.753906 5.078125 -5.234375 C 4.703125 -5.710938 4.191406 -5.953125 3.546875 -5.953125 Z M 3.546875 -6.6875 C 4.460938 -6.6875 5.195312 -6.375 5.75 -5.75 C 6.300781 -5.132812 6.578125 -4.3125 6.578125 -3.28125 C 6.578125 -2.238281 6.300781 -1.410156 5.75 -0.796875 C 5.195312 -0.179688 4.460938 0.125 3.546875 0.125 C 2.617188 0.125 1.878906 -0.179688 1.328125 -0.796875 C 0.773438 -1.410156 0.5 -2.238281 0.5 -3.28125 C 0.5 -4.3125 0.773438 -5.132812 1.328125 -5.75 C 1.878906 -6.375 2.617188 -6.6875 3.546875 -6.6875 Z M 3.546875 -6.6875 "/>
</symbol>
</g>
</defs>
<g id="surface38809">
<rect x="0" y="0" width="300" height="300" style="fill:rgb(100%,100%,100%);fill-opacity:1;stroke:none;"/>
<path style="fill:none;stroke-width:1.2;stroke-linecap:butt;stroke-linejoin:miter;stroke:rgb(0%,0%,0%);stroke-opacity:1;stroke-miterlimit:10;" d="M 45.066406 203.417969 L 64.089844 186.765625 "/>
<path style="fill:none;stroke-width:1.2;stroke-linecap:butt;stroke-linejoin:miter;stroke:rgb(0%,0%,0%);stroke-opacity:1;stroke-miterlimit:10;" d="M 64.089844 186.765625 L 76.058594 190.839844 "/>
<path style="fill:none;stroke-width:1.2;stroke-linecap:butt;stroke-linejoin:miter;stroke:rgb(0%,0%,100%);stroke-opacity:1;stroke-miterlimit:10;" d="M 76.058594 190.839844 L 88.023438 194.914062 "/>
<path style="fill:none;stroke-width:1.2;stroke-linecap:butt;stroke-linejoin:miter;stroke:rgb(0%,0%,0%);stroke-opacity:1;stroke-miterlimit:10;" d="M 68.402344 181.949219 L 77.972656 185.207031 "/>
<path style="fill:none;stroke-width:1.2;stroke-linecap:butt;stroke-linejoin:miter;stroke:rgb(0%,0%,100%);stroke-opacity:1;stroke-miterlimit:10;" d="M 77.972656 185.207031 L 87.546875 188.46875 "/>
<path style="fill:none;stroke-width:1.2;stroke-linecap:butt;stroke-linejoin:miter;stroke:rgb(0%,0%,0%);stroke-opacity:1;stroke-miterlimit:10;" d="M 59.183594 161.964844 L 64.089844 186.765625 "/>
<path style="fill:none;stroke-width:1.2;stroke-linecap:butt;stroke-linejoin:miter;stroke:rgb(0%,0%,100%);stroke-opacity:1;stroke-miterlimit:10;" d="M 88.023438 194.914062 L 97.535156 186.589844 "/>
<path style="fill:none;stroke-width:1.2;stroke-linecap:butt;stroke-linejoin:miter;stroke:rgb(0%,0%,0%);stroke-opacity:1;stroke-miterlimit:10;" d="M 97.535156 186.589844 L 107.046875 178.261719 "/>
<path style=" stroke:none;fill-rule:nonzero;fill:rgb(100%,100%,100%);fill-opacity:1;" d="M 85.023438 189.414062 L 92.023438 189.414062 L 92.023438 200.414062 L 85.023438 200.414062 Z M 85.023438 189.414062 "/>
<g style="fill:rgb(0%,0%,100%);fill-opacity:1;">
  <use xlink:href="#glyph0-1" x="85.023438" y="198.077148"/>
</g>
<path style="fill:none;stroke-width:1.2;stroke-linecap:butt;stroke-linejoin:miter;stroke:rgb(0%,0%,0%);stroke-opacity:1;stroke-miterlimit:10;" d="M 107.046875 178.261719 L 130.976562 186.410156 "/>
<path style="fill:none;stroke-width:1.2;stroke-linecap:butt;stroke-linejoin:miter;stroke:rgb(0%,0%,0%);stroke-opacity:1;stroke-miterlimit:10;" d="M 111.355469 173.445312 L 130.5 179.964844 "/>
<path style="fill:none;stroke-width:1.2;stroke-linecap:butt;stroke-linejoin:miter;stroke:rgb(0%,0%,0%);stroke-opacity:1;stroke-miterlimit:10;" d="M 102.136719 153.464844 L 107.046875 178.261719 "/>
<path style="fill:none;stroke-width:1.2;stroke-linecap:butt;stroke-linejoin:miter;stroke:rgb(0%,0%,0%);stroke-opacity:1;stroke-miterlimit:10;" d="M 130.976562 186.410156 L 140.488281 178.085938 "/>
<path style="fill:none;stroke-width:1.2;stroke-linecap:butt;stroke-linejoin:miter;stroke:rgb(0%,0%,100%);stroke-opacity:1;stroke-miterlimit:10;" d="M 140.488281 178.085938 L 150 169.761719 "/>
<path style="fill:none;stroke-width:1.2;stroke-linecap:butt;stroke-linejoin:miter;stroke:rgb(0%,0%,100%);stroke-opacity:1;stroke-miterlimit:10;" d="M 150 169.761719 L 147.546875 157.359375 "/>
<path style="fill:none;stroke-width:1.2;stroke-linecap:butt;stroke-linejoin:miter;stroke:rgb(0%,0%,0%);stroke-opacity:1;stroke-miterlimit:10;" d="M 147.546875 157.359375 L 145.089844 144.960938 "/>
<path style="fill:none;stroke-width:1.2;stroke-linecap:butt;stroke-linejoin:miter;stroke:rgb(0%,0%,100%);stroke-opacity:1;stroke-miterlimit:10;" d="M 143.675781 168.433594 L 141.710938 158.515625 "/>
<path style="fill:none;stroke-width:1.2;stroke-linecap:butt;stroke-linejoin:miter;stroke:rgb(0%,0%,0%);stroke-opacity:1;stroke-miterlimit:10;" d="M 141.710938 158.515625 L 139.746094 148.59375 "/>
<path style=" stroke:none;fill-rule:nonzero;fill:rgb(100%,100%,100%);fill-opacity:1;" d="M 147 164.261719 L 154 164.261719 L 154 175.261719 L 147 175.261719 Z M 147 164.261719 "/>
<g style="fill:rgb(0%,0%,100%);fill-opacity:1;">
  <use xlink:href="#glyph0-1" x="147" y="172.924805"/>
</g>
<path style="fill:none;stroke-width:1.2;stroke-linecap:butt;stroke-linejoin:miter;stroke:rgb(0%,0%,0%);stroke-opacity:1;stroke-miterlimit:10;" d="M 145.089844 144.960938 L 133.125 140.886719 "/>
<path style="fill:none;stroke-width:1.2;stroke-linecap:butt;stroke-linejoin:miter;stroke:rgb(0%,0%,100%);stroke-opacity:1;stroke-miterlimit:10;" d="M 133.125 140.886719 L 121.160156 136.8125 "/>
<path style="fill:none;stroke-width:1.2;stroke-linecap:butt;stroke-linejoin:miter;stroke:rgb(0%,0%,0%);stroke-opacity:1;stroke-miterlimit:10;" d="M 145.089844 144.960938 L 154.601562 136.632812 "/>
<path style="fill:none;stroke-width:1.2;stroke-linecap:butt;stroke-linejoin:miter;stroke:rgb(100%,0%,0%);stroke-opacity:1;stroke-miterlimit:10;" d="M 154.601562 136.632812 L 164.113281 128.308594 "/>
<path style="fill:none;stroke-width:1.2;stroke-linecap:butt;stroke-linejoin:miter;stroke:rgb(0%,0%,100%);stroke-opacity:1;stroke-miterlimit:10;" d="M 121.160156 136.8125 L 111.648438 145.136719 "/>
<path style="fill:none;stroke-width:1.2;stroke-linecap:butt;stroke-linejoin:miter;stroke:rgb(0%,0%,0%);stroke-opacity:1;stroke-miterlimit:10;" d="M 111.648438 145.136719 L 102.136719 153.464844 "/>
<path style="fill:none;stroke-width:1.2;stroke-linecap:butt;stroke-linejoin:miter;stroke:rgb(0%,0%,100%);stroke-opacity:1;stroke-miterlimit:10;" d="M 123.175781 142.953125 L 115.566406 149.613281 "/>
<path style="fill:none;stroke-width:1.2;stroke-linecap:butt;stroke-linejoin:miter;stroke:rgb(0%,0%,0%);stroke-opacity:1;stroke-miterlimit:10;" d="M 115.566406 149.613281 L 107.957031 156.273438 "/>
<path style=" stroke:none;fill-rule:nonzero;fill:rgb(100%,100%,100%);fill-opacity:1;" d="M 118.160156 131.3125 L 125.160156 131.3125 L 125.160156 142.3125 L 118.160156 142.3125 Z M 118.160156 131.3125 "/>
<g style="fill:rgb(0%,0%,100%);fill-opacity:1;">
  <use xlink:href="#glyph0-1" x="118.160156" y="139.975586"/>
</g>
<path style="fill:none;stroke-width:1.2;stroke-linecap:butt;stroke-linejoin:miter;stroke:rgb(0%,0%,0%);stroke-opacity:1;stroke-miterlimit:10;" d="M 102.136719 153.464844 L 90.171875 149.390625 "/>
<path style="fill:none;stroke-width:1.2;stroke-linecap:butt;stroke-linejoin:miter;stroke:rgb(0%,0%,100%);stroke-opacity:1;stroke-miterlimit:10;" d="M 90.171875 149.390625 L 78.203125 145.316406 "/>
<path style="fill:none;stroke-width:1.2;stroke-linecap:butt;stroke-linejoin:miter;stroke:rgb(0%,0%,100%);stroke-opacity:1;stroke-miterlimit:10;" d="M 78.203125 145.316406 L 68.691406 153.640625 "/>
<path style="fill:none;stroke-width:1.2;stroke-linecap:butt;stroke-linejoin:miter;stroke:rgb(0%,0%,0%);stroke-opacity:1;stroke-miterlimit:10;" d="M 68.691406 153.640625 L 59.183594 161.964844 "/>
<path style="fill:none;stroke-width:1.2;stroke-linecap:butt;stroke-linejoin:miter;stroke:rgb(0%,0%,100%);stroke-opacity:1;stroke-miterlimit:10;" d="M 78.203125 145.316406 L 75.75 132.914062 "/>
<path style="fill:none;stroke-width:1.2;stroke-linecap:butt;stroke-linejoin:miter;stroke:rgb(0%,0%,0%);stroke-opacity:1;stroke-miterlimit:10;" d="M 75.75 132.914062 L 73.296875 120.515625 "/>
<path style=" stroke:none;fill-rule:nonzero;fill:rgb(100%,100%,100%);fill-opacity:1;" d="M 75.203125 139.816406 L 82.203125 139.816406 L 82.203125 150.816406 L 75.203125 150.816406 Z M 75.203125 139.816406 "/>
<g style="fill:rgb(0%,0%,100%);fill-opacity:1;">
  <use xlink:href="#glyph0-1" x="75.203125" y="148.479492"/>
</g>
<path style="fill:none;stroke-width:1.2;stroke-linecap:butt;stroke-linejoin:miter;stroke:rgb(0%,0%,0%);stroke-opacity:1;stroke-miterlimit:10;" d="M 60.140625 159.152344 L 48.175781 155.074219 "/>
<path style="fill:none;stroke-width:1.2;stroke-linecap:butt;stroke-linejoin:miter;stroke:rgb(100%,0%,0%);stroke-opacity:1;stroke-miterlimit:10;" d="M 48.175781 155.074219 L 36.207031 151 "/>
<path style="fill:none;stroke-width:1.2;stroke-linecap:butt;stroke-linejoin:miter;stroke:rgb(0%,0%,0%);stroke-opacity:1;stroke-miterlimit:10;" d="M 58.222656 164.78125 L 46.257812 160.707031 "/>
<path style="fill:none;stroke-width:1.2;stroke-linecap:butt;stroke-linejoin:miter;stroke:rgb(100%,0%,0%);stroke-opacity:1;stroke-miterlimit:10;" d="M 46.257812 160.707031 L 34.292969 156.632812 "/>
<path style=" stroke:none;fill-rule:nonzero;fill:rgb(100%,100%,100%);fill-opacity:1;" d="M 27.25 148.316406 L 35.25 148.316406 L 35.25 159.316406 L 27.25 159.316406 Z M 27.25 148.316406 "/>
<g style="fill:rgb(100%,0%,0%);fill-opacity:1;">
  <use xlink:href="#glyph0-2" x="27.25" y="156.979492"/>
</g>
<path style="fill:none;stroke-width:1.2;stroke-linecap:butt;stroke-linejoin:miter;stroke:rgb(0%,0%,0%);stroke-opacity:1;stroke-miterlimit:10;" d="M 73.296875 120.515625 L 56.644531 101.492188 "/>
<path style="fill:none;stroke-width:1.2;stroke-linecap:butt;stroke-linejoin:miter;stroke:rgb(0%,0%,0%);stroke-opacity:1;stroke-miterlimit:10;" d="M 81.445312 96.582031 L 73.296875 120.515625 "/>
<path style="fill:none;stroke-width:1.2;stroke-linecap:butt;stroke-linejoin:miter;stroke:rgb(0%,0%,0%);stroke-opacity:1;stroke-miterlimit:10;" d="M 56.644531 101.492188 L 81.445312 96.582031 "/>
<path style="fill:none;stroke-width:1.2;stroke-linecap:butt;stroke-linejoin:miter;stroke:rgb(100%,0%,0%);stroke-opacity:1;stroke-miterlimit:10;" d="M 164.113281 128.308594 L 176.078125 132.382812 "/>
<path style="fill:none;stroke-width:1.2;stroke-linecap:butt;stroke-linejoin:miter;stroke:rgb(0%,0%,0%);stroke-opacity:1;stroke-miterlimit:10;" d="M 176.078125 132.382812 L 188.046875 136.457031 "/>
<path style=" stroke:none;fill-rule:nonzero;fill:rgb(100%,100%,100%);fill-opacity:1;" d="M 160.113281 122.808594 L 168.113281 122.808594 L 168.113281 133.808594 L 160.113281 133.808594 Z M 160.113281 122.808594 "/>
<g style="fill:rgb(100%,0%,0%);fill-opacity:1;">
  <use xlink:href="#glyph0-2" x="160.113281" y="131.47168"/>
</g>
<path style="fill:none;stroke-width:1.2;stroke-linecap:butt;stroke-linejoin:miter;stroke:rgb(0%,0%,0%);stroke-opacity:1;stroke-miterlimit:10;" d="M 188.046875 136.457031 L 192.953125 161.257812 "/>
<path style="fill:none;stroke-width:1.2;stroke-linecap:butt;stroke-linejoin:miter;stroke:rgb(0%,0%,0%);stroke-opacity:1;stroke-miterlimit:10;" d="M 194.371094 137.78125 L 198.300781 157.621094 "/>
<path style="fill:none;stroke-width:1.2;stroke-linecap:butt;stroke-linejoin:miter;stroke:rgb(0%,0%,0%);stroke-opacity:1;stroke-miterlimit:10;" d="M 207.066406 119.804688 L 188.046875 136.457031 "/>
<path style="fill:none;stroke-width:1.2;stroke-linecap:butt;stroke-linejoin:miter;stroke:rgb(0%,0%,0%);stroke-opacity:1;stroke-miterlimit:10;" d="M 192.953125 161.257812 L 216.886719 169.40625 "/>
<path style="fill:none;stroke-width:1.2;stroke-linecap:butt;stroke-linejoin:miter;stroke:rgb(0%,0%,0%);stroke-opacity:1;stroke-miterlimit:10;" d="M 216.886719 169.40625 L 235.910156 152.753906 "/>
<path style="fill:none;stroke-width:1.2;stroke-linecap:butt;stroke-linejoin:miter;stroke:rgb(0%,0%,0%);stroke-opacity:1;stroke-miterlimit:10;" d="M 214.871094 163.265625 L 230.089844 149.945312 "/>
<path style="fill:none;stroke-width:1.2;stroke-linecap:butt;stroke-linejoin:miter;stroke:rgb(0%,0%,0%);stroke-opacity:1;stroke-miterlimit:10;" d="M 235.910156 152.753906 L 231 127.953125 "/>
<path style="fill:none;stroke-width:1.2;stroke-linecap:butt;stroke-linejoin:miter;stroke:rgb(0%,0%,0%);stroke-opacity:1;stroke-miterlimit:10;" d="M 235.910156 152.753906 L 247.875 156.828125 "/>
<path style="fill:none;stroke-width:1.2;stroke-linecap:butt;stroke-linejoin:miter;stroke:rgb(100%,0%,0%);stroke-opacity:1;stroke-miterlimit:10;" d="M 247.875 156.828125 L 259.839844 160.902344 "/>
<path style="fill:none;stroke-width:1.2;stroke-linecap:butt;stroke-linejoin:miter;stroke:rgb(0%,0%,0%);stroke-opacity:1;stroke-miterlimit:10;" d="M 231 127.953125 L 207.066406 119.804688 "/>
<path style="fill:none;stroke-width:1.2;stroke-linecap:butt;stroke-linejoin:miter;stroke:rgb(0%,0%,0%);stroke-opacity:1;stroke-miterlimit:10;" d="M 226.6875 132.769531 L 207.542969 126.25 "/>
<path style="fill:none;stroke-width:1.2;stroke-linecap:butt;stroke-linejoin:miter;stroke:rgb(100%,0%,0%);stroke-opacity:1;stroke-miterlimit:10;" d="M 259.839844 160.902344 L 262.296875 173.300781 "/>
<path style="fill:none;stroke-width:1.2;stroke-linecap:butt;stroke-linejoin:miter;stroke:rgb(0%,0%,0%);stroke-opacity:1;stroke-miterlimit:10;" d="M 262.296875 173.300781 L 264.75 185.703125 "/>
<path style=" stroke:none;fill-rule:nonzero;fill:rgb(100%,100%,100%);fill-opacity:1;" d="M 255.839844 155.402344 L 263.839844 155.402344 L 263.839844 166.402344 L 255.839844 166.402344 Z M 255.839844 155.402344 "/>
<g style="fill:rgb(100%,0%,0%);fill-opacity:1;">
  <use xlink:href="#glyph0-2" x="255.839844" y="164.06543"/>
</g>
</g>
</svg>

<svg xmlns="http://www.w3.org/2000/svg" xmlns:xlink="http://www.w3.org/1999/xlink" width="300pt" height="300pt" viewBox="0 0 300 300"><defs><symbol overflow="visible"><path d="M.453 1.594v-7.938h4.5v7.938zm.5-.5h3.5v-6.938h-3.5zm0 0"/></symbol><symbol overflow="visible" id="a"><path d="M.89-6.563H2.08l2.906 5.485v-5.484h.86V0H4.656L1.75-5.484V0H.89zm0 0"/></symbol><symbol overflow="visible" id="b"><path d="M3.547-5.953c-.65 0-1.164.242-1.547.72-.375.48-.563 1.13-.563 1.952 0 .835.188 1.49.563 1.967.383.48.898.72 1.547.72.644 0 1.156-.24 1.53-.72.376-.476.564-1.132.564-1.968 0-.822-.187-1.474-.562-1.954-.375-.477-.887-.72-1.53-.72zm0-.734c.914 0 1.648.312 2.203.937.55.617.828 1.438.828 2.47 0 1.042-.277 1.87-.828 2.483-.555.617-1.29.922-2.203.922-.93 0-1.668-.305-2.22-.922C.774-1.41.5-2.237.5-3.28c0-1.033.273-1.853.828-2.47.55-.625 1.29-.938 2.22-.938zm0 0"/></symbol></defs><g><path fill="#fff" d="M0 0h300v300H0z"/><path d="M45.066 203.418l19.024-16.652M64.09 186.766l11.97 4.074" stroke-width="1.2" stroke="#000" stroke-miterlimit="10" fill="none"/><path d="M76.06 190.84l11.963 4.074" stroke-width="1.2" stroke="#00f" stroke-miterlimit="10" fill="none"/><path d="M68.402 181.95l9.57 3.257" stroke-width="1.2" stroke="#000" stroke-miterlimit="10" fill="none"/><path d="M77.973 185.207l9.574 3.262" stroke-width="1.2" stroke="#00f" stroke-miterlimit="10" fill="none"/><path d="M59.184 161.965l4.906 24.8" stroke-width="1.2" stroke="#000" stroke-miterlimit="10" fill="none"/><path d="M88.023 194.914l9.512-8.324" stroke-width="1.2" stroke="#00f" stroke-miterlimit="10" fill="none"/><path d="M97.535 186.59l9.512-8.328" stroke-width="1.2" stroke="#000" stroke-miterlimit="10" fill="none"/><path d="M85.023 189.414h7v11h-7zm0 0" fill="#fff"/><use xlink:href="#a" x="85.023" y="198.077" fill="#00f"/><path d="M107.047 178.262l23.93 8.148M111.355 173.445l19.145 6.52M102.137 153.465l4.91 24.797M130.977 186.41l9.51-8.324" stroke-width="1.2" stroke="#000" stroke-miterlimit="10" fill="none"/><path d="M140.488 178.086l9.512-8.324M150 169.762l-2.453-12.403" stroke-width="1.2" stroke="#00f" stroke-miterlimit="10" fill="none"/><path d="M147.547 157.36l-2.457-12.4" stroke-width="1.2" stroke="#000" stroke-miterlimit="10" fill="none"/><path d="M143.676 168.434l-1.965-9.918" stroke-width="1.2" stroke="#00f" stroke-miterlimit="10" fill="none"/><path d="M141.71 158.516l-1.964-9.922" stroke-width="1.2" stroke="#000" stroke-miterlimit="10" fill="none"/><path d="M147 164.262h7v11h-7zm0 0" fill="#fff"/><use xlink:href="#a" x="147" y="172.925" fill="#00f"/><path d="M145.09 144.96l-11.965-4.073" stroke-width="1.2" stroke="#000" stroke-miterlimit="10" fill="none"/><path d="M133.125 140.887l-11.965-4.075" stroke-width="1.2" stroke="#00f" stroke-miterlimit="10" fill="none"/><path d="M145.09 144.96l9.512-8.327" stroke-width="1.2" stroke="#000" stroke-miterlimit="10" fill="none"/><path d="M154.602 136.633l9.51-8.324" stroke-width="1.2" stroke="#f00" stroke-miterlimit="10" fill="none"/><path d="M121.16 136.813l-9.512 8.324" stroke-width="1.2" stroke="#00f" stroke-miterlimit="10" fill="none"/><path d="M111.648 145.137l-9.51 8.328" stroke-width="1.2" stroke="#000" stroke-miterlimit="10" fill="none"/><path d="M123.176 142.953l-7.61 6.66" stroke-width="1.2" stroke="#00f" stroke-miterlimit="10" fill="none"/><path d="M115.566 149.613l-7.61 6.66" stroke-width="1.2" stroke="#000" stroke-miterlimit="10" fill="none"/><path d="M118.16 131.313h7v11h-7zm0 0" fill="#fff"/><use xlink:href="#a" x="118.16" y="139.976" fill="#00f"/><path d="M102.137 153.465l-11.965-4.074" stroke-width="1.2" stroke="#000" stroke-miterlimit="10" fill="none"/><path d="M90.172 149.39l-11.97-4.074M78.203 145.316l-9.512 8.325" stroke-width="1.2" stroke="#00f" stroke-miterlimit="10" fill="none"/><path d="M68.69 153.64l-9.506 8.325" stroke-width="1.2" stroke="#000" stroke-miterlimit="10" fill="none"/><path d="M78.203 145.316l-2.453-12.402" stroke-width="1.2" stroke="#00f" stroke-miterlimit="10" fill="none"/><path d="M75.75 132.914l-2.453-12.398" stroke-width="1.2" stroke="#000" stroke-miterlimit="10" fill="none"/><path d="M75.203 139.816h7v11h-7zm0 0" fill="#fff"/><use xlink:href="#a" x="75.203" y="148.479" fill="#00f"/><path d="M60.14 159.152l-11.964-4.078" stroke-width="1.2" stroke="#000" stroke-miterlimit="10" fill="none"/><path d="M48.176 155.074L36.206 151" stroke-width="1.2" stroke="#f00" stroke-miterlimit="10" fill="none"/><path d="M58.223 164.78l-11.965-4.073" stroke-width="1.2" stroke="#000" stroke-miterlimit="10" fill="none"/><path d="M46.258 160.707l-11.965-4.074" stroke-width="1.2" stroke="#f00" stroke-miterlimit="10" fill="none"/><path d="M27.25 148.316h8v11h-8zm0 0" fill="#fff"/><use xlink:href="#b" x="27.25" y="156.979" fill="#f00"/><path d="M73.297 120.516l-16.652-19.024M81.445 96.582l-8.148 23.934M56.645 101.492l24.8-4.91" stroke-width="1.2" stroke="#000" stroke-miterlimit="10" fill="none"/><path d="M164.113 128.31l11.965 4.073" stroke-width="1.2" stroke="#f00" stroke-miterlimit="10" fill="none"/><path d="M176.078 132.383l11.97 4.074" stroke-width="1.2" stroke="#000" stroke-miterlimit="10" fill="none"/><path d="M160.113 122.81h8v11h-8zm0 0" fill="#fff"/><use xlink:href="#b" x="160.113" y="131.472" fill="#f00"/><path d="M188.047 136.457l4.906 24.8M194.37 137.78l3.93 19.84M207.066 119.805l-19.02 16.652M192.953 161.258l23.934 8.148M216.887 169.406l19.023-16.652M214.87 163.266l15.22-13.32M235.91 152.754l-4.91-24.8M235.91 152.754l11.965 4.074" stroke-width="1.2" stroke="#000" stroke-miterlimit="10" fill="none"/><path d="M247.875 156.828l11.965 4.074" stroke-width="1.2" stroke="#f00" stroke-miterlimit="10" fill="none"/><path d="M231 127.953l-23.934-8.148M226.688 132.77l-19.145-6.52" stroke-width="1.2" stroke="#000" stroke-miterlimit="10" fill="none"/><path d="M259.84 160.902l2.457 12.4" stroke-width="1.2" stroke="#f00" stroke-miterlimit="10" fill="none"/><path d="M262.297 173.3l2.453 12.403" stroke-width="1.2" stroke="#000" stroke-miterlimit="10" fill="none"/><path d="M255.84 155.402h8v11h-8zm0 0" fill="#fff"/><use xlink:href="#b" x="255.84" y="164.065" fill="#f00"/></g></svg>
